icons/error-circle.svg

<svg width="24" height="24" viewBox="0 0 24 24" fill="none" xmlns="http://www.w3.org/2000/svg">
<path fill-rule="evenodd" clip-rule="evenodd" d="M12 3.75C7.44365 3.75 3.75 7.44365 3.75 12C3.75 16.5563 7.44365 20.25 12 20.25C16.5563 20.25 20.25 16.5563 20.25 12C20.25 7.44365 16.5563 3.75 12 3.75ZM2.25 12C2.25 6.61522 6.61522 2.25 12 2.25C17.3848 2.25 21.75 6.61522 21.75 12C21.75 17.3848 17.3848 21.75 12 21.75C6.61522 21.75 2.25 17.3848 2.25 12Z" fill="black"/>
<path d="M12.0001 14.7C11.6001 14.7 11.2001 14.4 11.2001 13.9V7.89998C11.2001 7.49998 11.5001 7.09998 12.0001 7.09998C12.5001 7.09998 12.8001 7.39998 12.8001 7.89998V13.9C12.7001 14.4 12.4001 14.7 12.0001 14.7Z" fill="black"/>
<path d="M12.0001 17.7C11.8001 17.7 11.6001 17.6 11.5001 17.5C11.4001 17.4 11.4001 17.4 11.3001 17.3C11.3001 17.2 11.2001 17.1 11.2001 17C11.2001 16.8 11.3001 16.6 11.4001 16.5C11.6001 16.3 11.9001 16.2 12.2001 16.3C12.3001 16.3 12.4001 16.4 12.4001 16.5C12.5001 16.6 12.6001 16.8 12.6001 17C12.6001 17.1 12.6001 17.2 12.5001 17.3C12.5001 17.4 12.4001 17.5 12.3001 17.5C12.2001 17.5 12.2001 17.6 12.1001 17.7C12.2001 17.7 12.1001 17.7 12.0001 17.7Z" fill="black"/>
</svg>

<svg xmlns="http://www.w3.org/2000/svg" fill="none" viewBox="0 0 24 24">
  <path fill="#000" fill-rule="evenodd" d="M12 3.75a8.25 8.25 0 1 0 0 16.5 8.25 8.25 0 0 0 0-16.5ZM2.25 12c0-5.385 4.365-9.75 9.75-9.75s9.75 4.365 9.75 9.75-4.365 9.75-9.75 9.75S2.25 17.385 2.25 12Z" clip-rule="evenodd"/>
  <path fill="#000" d="M12 14.7c-.4 0-.8-.3-.8-.8v-6c0-.4.3-.8.8-.8s.8.3.8.8v6c-.1.5-.4.8-.8.8Zm0 3c-.2 0-.4-.1-.5-.2l-.2-.2c0-.1-.1-.2-.1-.3 0-.2.1-.4.2-.5.2-.2.5-.3.8-.2.1 0 .2.1.2.2.1.1.2.3.2.5 0 .1 0 .2-.1.3 0 .1-.1.2-.2.2s-.1.1-.2.2H12Z"/>
</svg>
